X: 27422
T: Moll Roe
R: slip jig
M: 9/8
K: Dmajor
A|:dcd efd cde|fef gef g2e|dcd efd cde|~f3 gec d2A:|
|:aff ged cde|aff ged cde|aff ged cde|1 fef gec d2A:|2 fef gec d3||

